icons/fill-new-ohter-dislike-thumb-down.svg

<svg xmlns="http://www.w3.org/2000/svg" width="32px" height="32px" viewBox="0 0 32 32" version="1.1">
    <title>fill-new-ohter-dislike-thumb-down</title>
    <g id="fill-new-ohter-dislike-thumb-down" stroke-width="1" fill-rule="evenodd">
        <path d="M29,19 L24,19 L24,2 L29,2 C29.5522847,2 30,2.44771525 30,3 L30,18 C30,18.5522847 29.5522847,19 29,19 Z M22,2 L22,19 L17.8476298,30.0729873 C17.6550794,30.5864549 17.0849249,30.8490636 16.5695575,30.6616573 L14.6330277,29.9574646 C13.052271,29.382644 12,27.8803167 12,26.1982909 L12,20 L5.72184169,20 C3.51270269,20 1.72184169,18.209139 1.72184169,16 C1.72184169,15.7796766 1.74004504,15.5597298 1.77626599,15.3424041 L3.44293266,5.34240405 C3.7643913,3.41365217 5.43315174,2 7.38850835,2 L22,2 Z" id="&#24418;&#29366;" />
    </g>
</svg>

<svg xmlns="http://www.w3.org/2000/svg" viewBox="0 0 32 32"><path fill="currentColor" d="M29 19h-5V2h5a1 1 0 0 1 1 1v15a1 1 0 0 1-1 1M22 2v17l-4.152 11.073a1 1 0 0 1-1.278.589l-1.937-.705A4 4 0 0 1 12 26.198V20H5.722a4 4 0 0 1-3.946-4.658l1.667-10A4 4 0 0 1 7.389 2z"/></svg>
